X:1
T:Kellyvale
T:A minor, C Major         Hezekiah Moors, 1809
T:Counter by B. C. Johnston, 2018.
T:Isaac Watts, 1707 (Hymn 80, Book 1)              88. 88. (L. M.)
T:Treble-Tenor-Bass Transcribed from Province Harmony, 1809;
%%score [ 1 2 3 4 ]
L:1/8
Q:1/4=90
M:3/2
K:C
V:1 treble nm="Tr." snm="Tr."
V:2 treble nm="C." snm="C."
V:3 treble-8 nm="T." snm="T."
V:4 bass nm="B." snm="B."
V:1
 E4 A4 ^G4 | A8 B4 | (c4 B4) A4 |{A} ^G8 z4 | A4 A4 B4 | c8 B4 | (A4 B2 A2) ^G4 | A8 z2 G2 || %8
w: 1. In vain the|sons of|earth * or|hell|Tell me a|thou- sand|fright- * * ful|things; My|
w: 2. Faith in his|name for-|bids * my|fear;|O may thy|pre- sence|ne'er * * de-|part! And|
w: 3. Thus far the|Lord has|led * me|on,|Thus far his|power pro-|longs * * my|days; And|
[M:2/4] c2 G2 | c2 e2 | c/d/e dc |{c} B3 z |: z4 | z2 z d | e e e d | c2 g2 | e3 g | ec ea | %18
w: God in|safe- ty|makes * * me *|dwell||Be-|neath the sha- dow|of his|wings, Be-|neath * the *|
w: in the|mor- ning|make * * me *|hear||The|love and kind- ness|of thy|heart, The|love * and *|
w: eve- ry|eve- ning|shall * * make *|known||Some|fresh me- mo- rial|of his|grace, Some|fresh * me- *|
 gf ed | c2 B2 |1 c3 z :|2 c4 |] %22
w: sha- * dow *|of his|wings.||
w: kind- * ness *|of thy|heart.||
w: mo- * rial *|of his|grace.||
V:2
 A4 A4 B4 | c8 B4 | (c4 G4) A4 |{A} B8 z4 | A4 A4 D4 | E8 E4 | (F4 B2 A2) B4 | A8 z2 G2 || %8
w: ||||||||
w: ||||||||
w: ||||||||
[M:2/4] E2 G2 | E2 G2 | c/B/A BA | G3 z |: z4 | z4 | z2 z D | E E E E | E3 G | A2 GA | G A G F | %19
w: ||||||Be-|neath the sha- dow|of his|wings, Be- *|neath the sha- dow|
w: ||||||The|love and kind- ness|of thy|heart, The *|love and kind- ness|
w: ||||||Some|fresh me- mo- rial|of his|grace, Some *|fresh me- mo- rial|
 G2 G2 |1 G3 z :|2 G4 |] %22
w: of his|wings.||
w: of thy|heart.||
w: of his|grace.||
V:3
 A4 c4 B4 | c8 d4 | (e4 d4) c4 |{c} B8 z4 | c4 c4 d4 | e8 e4 | (c4 d2 c2) B4 | A8 z2 G2 || %8
w: 1. In vain the|sons of|earth * or|hell|Tell me a|thou- sand|fright- * * ful|things; My|
w: 2. Faith in his|name for-|bids * my|fear;|O may thy|pre- sence|ne'er * * de-|part! And|
w: 3. Thus far the|Lord has|led * me|on,|Thus far his|power pro-|longs * * my|days; And|
[M:2/4] E2 C2 | E2 G2 | c2 BA | G3 z |: z2 z d | e e e d | c2 g2 | e4- | e3 d | c2 GF | EA Gf | %19
w: God in|safe- ty|makes me *|dwell|Be-|neath the sha- dow|of his|wings, |_ Be-|neath the *|sha- * dow *|
w: in the|mor- ning|make me *|hear|The|love and kind- ness|of thy|heart, |_ The|love and *|kind- * ness *|
w: eve- ry|eve- ning|shall make *|known|Some|fresh me- mo- rial|of his|grace, |_ Some|fresh me- *|mo- * rial *|
 e2 d2 |1 c3 z :|2 c4 |] %22
w: of his|wings.||
w: of thy|heart.||
w: of his|grace.||
V:4
 A,,4 A,,4 E,4 | A,8 G,4 | (C4 G,4) A,4 | E,8 z4 | A,4 A,4 G,4 | C,8 E,4 | (F,4 D,4) E,4 | %7
w: |||||||
w: |||||||
w: |||||||
 A,,8 z2 C,2 ||[M:2/4] C,2 C,2 | C,2 C,2 | C,2 D,2 | G,3 G, |: C C C G, | C,2 G,2 | C4- | C4- | %16
w: ||||* Be-|neath the sha- dow|of his|wings, |_|
w: ||||* The|love and kind- ness|of thy|heart, |_|
w: ||||* Some|fresh me- mo- rial|of his|grace, |_|
 C3 B, | A,2 E,D, | C,D, E,F, | G,2 G,2 |1 C,3 G, :|2 C,4 |] %22
w: * Be-|neath the *|sha- * dow *|of his|wings. Be–||
w: * The|love and *|kind- * ness *|of thy|heart. The||
w: * Some|fresh me- *|mo- * rial *|of his|grace. Some||

